X:179
T:Reel 179
M:4/4
K:Gmaj
L:1/8
G>B (3BAB dB (3BBG |d>B (3BAB g>B (3BAB |c>A (3AGA f>A (3ABc ||dfec dgfg:||2c<fA>B  (3ABA f2|g2ge f2d2|gfge f2fe|dcBc d2fd| (3fff dc d2B2|ABcd e2BA|gfec d2b2|gagf g2 (3def |gfge d2BA|GABc d2ed|fefd cA (3ABA |defa gf (3efg |dBGB A2 (3ABA |
